X:1
T:Ring, Ye Bells, A Merry Chime
T:Ring, Ye Bells, A Merry Chime
T:Geo. W. Morgan
C:Geo. W. Morgan
%%score [ 1 2 3 4 ]
L:1/8
Q:1/4=60
M:4/4
K:Eb
V:1 treble nm="Soprano" snm="S"
V:2 treble nm="Alto" snm="A"
V:3 treble-8 nm="Tenor" snm="T"
V:4 bass nm="Bass" snm="B"
V:1
"^Words by John Keynton""^1"!mf! Bedc B>A (AG) | cB d>e AG (GF) |"^3" cdBe A>B G z | c>d eA GF E2 | %4
w: 1.Ring, ye bells, a mer- ry chime, *|Ring the news to ev'- ry clime, *|On this glo- rious Christ- mas morn,|Christ, our king, to- day was born.|
!p! F>!<(!G A!<)!!>(!c c!>)!BG z |"^6" =A!<(!B c>!<)!e!>(! ed!>)! B z/!f! B/ | %6
w: Joy- ful be our songs to- day,|As we sing the an- gel's lay. "Ho-|
 e2 d z/ G/ c2 B z/ B/ | cB d>e e2 d z |"^9" c z/ B/ Be/ z/!>(! B>A G!>)! z | %9
w: san- na! Ho- san- na! Ho-|san- na! in the high- est",|Sing Ho- san- nas, Loud pro- claim|
!<(! cd!<)! e z/ A/"^callando" GF E2 :| %10
w: Christ is born at Beth- le- hem.|
V:2
!mf! GBAG F>D E2 | EE A>G FE (ED) | EDEE E>D E z | E>F EE ED E2 |!p! D>!<(!E F!<)!!>(!A AG!>)!E z | %5
w: 2.Christ- mas Bells are soun- ding clear,|Our bless'd Lord doth now ap- pear; *|In a lone- ly man- ger lies,|Lord of earth and Par- a- dise.|Raise your voice in sweet ac- cord,|
 E!<(!F G>!<)!=A!>(! BB!>)! F z/!f! G/ | G2 F z/ F/ E2 E z/ E/ | EE A>G G2 F z | %8
w: Christ for- ev- er be a- dored! "Ho-|san- na! Ho- san- na! Ho-|san- na! in the high- est",|
 D z/ D/ EG/ z/!>(! F>D E!>)! z |!<(! EF!<)! E z/ E/"^callando" ED E2 :| %10
w: Sing Ho- san- nas, Loud pro- claim|Christ is born at Beth- le- hem.|
V:3
!mf! eefc F>d B2 | AB B>B BB B2 | ABBB c>B B z | A>F BA BA G2 |!p! B>!<(!B c!<)!!>(!B BB!>)!B z | %5
w: 3.Ring out tones both loud and clear,|Da- vid's son doth now ap- pear;|An- gel choirs an- nounce his birth,|Sing- ing "Peace, good will on earth."|Loud re- spon- sive let us sing,|
 c!<(!d e>!<)!c!>(! gf!>)! d z/!f! e/ | B2 =B z/ d/ c2 G z/ _B/ | AB B>B B2 B z | %8
w: Glo- ry to our Lord and King. Ho-|san- na! Ho- san- na! Ho-|san- na! in the high- est!",|
 B z/ B/ BB/ z/!>(! B>B!>)! B z |!<(! AF!<)! B z/ A/"^callando" BA G2 :| %10
w: Sing Ho- san- nas, Loud pro- claim|Christ is born at Beth- le- hem.|
V:4
!mf! E,G,F,E, (D,B,,/)B,,/ E,2 | A,G, F,>E, D,E, B,,2 | A,A,G,G, F,>B,, E, z | %3
w: 4.Ring, Oh ring a mer- * ry chime,|Ring the news to ev'- ry clime,|How the wise men from a- far,|
 A,,>A,, G,,C, B,,B,, E,2 |!p! (B,!<(!G,/)G,/ F,!<)!!>(!D, E,E,!>)!G, z | %5
w: Fol- low'd Beth- l'hem's ra- diant star.|Rais'd * their voice in sweet ac- cord,|
 F,!<(!F, F,>!<)!F,!>(! B,B,!>)! B, z/!f! E,/ | E,2 G, z/ G,/ A,2 E, z/ G,/ | %7
w: Sang their prais- es to the lord. Ho-|san- na! Ho- san- na! Ho-|
 A,G, F,>E, B,,2 B, z | %8
w: san- na! in the high- est",|
 A, z/ A,/ G,E,/"^Edition Copyright © 2002 as public domain. May be freely used." z/!>(! D,>F,!>)! E, z | %9
w: Sing Ho- san- nas, Loud pro- claim|
!<(! A,,A,,!<)! G,, z/ C,/"^callando" B,,B,, E,2 :| %10
w: Christ is born at Beth- le- hem.|

